images/icon/admin.svg

<?xml version="1.0" encoding="UTF-8" standalone="no"?>
<svg
   xmlns:dc="http://purl.org/dc/elements/1.1/"
   xmlns:cc="http://creativecommons.org/ns#"
   xmlns:rdf="http://www.w3.org/1999/02/22-rdf-syntax-ns#"
   xmlns:svg="http://www.w3.org/2000/svg"
   xmlns="http://www.w3.org/2000/svg"
   xmlns:xlink="http://www.w3.org/1999/xlink"
   xmlns:sodipodi="http://sodipodi.sourceforge.net/DTD/sodipodi-0.dtd"
   xmlns:inkscape="http://www.inkscape.org/namespaces/inkscape"
   width="14"
   height="14"
   version="1.1"
   id="svg10"
   sodipodi:docname="admin.svg"
   inkscape:version="0.92.4 (5da689c313, 2019-01-14)">
  <metadata
     id="metadata14">
    <rdf:RDF>
      <cc:Work
         rdf:about="">
        <dc:format>image/svg+xml</dc:format>
        <dc:type
           rdf:resource="http://purl.org/dc/dcmitype/StillImage" />
      </cc:Work>
    </rdf:RDF>
  </metadata>
  <sodipodi:namedview
     pagecolor="#ffffff"
     bordercolor="#666666"
     borderopacity="1"
     objecttolerance="10"
     gridtolerance="10"
     guidetolerance="10"
     inkscape:pageopacity="0"
     inkscape:pageshadow="2"
     inkscape:window-width="1920"
     inkscape:window-height="1001"
     id="namedview12"
     showgrid="false"
     inkscape:zoom="16.857143"
     inkscape:cx="7"
     inkscape:cy="7"
     inkscape:window-x="-9"
     inkscape:window-y="-9"
     inkscape:window-maximized="1"
     inkscape:current-layer="svg10" />
  <defs
     id="defs3">
    <path
       id="a"
       d="m14,9.3l0,-2.57l-1.575,-0.264c-0.117,-0.44 -0.292,-0.848 -0.496,-1.2l0.93,-1.285l-1.81,-1.84l-1.31,0.908c-0.38,-0.205 -0.79,-0.38 -1.196,-0.497l-0.259,-1.552l-2.568,0l-0.263,1.578c-0.437,0.117 -0.816,0.293 -1.196,0.497l-1.282,-0.905l-1.838,1.81l0.934,1.287c-0.2,0.38 -0.376,0.79 -0.493,1.228l-1.578,0.235l0,2.57l1.575,0.264c0.117,0.438 0.292,0.818 0.496,1.198l-0.93,1.315l1.809,1.813l1.312,-0.938c0.38,0.205 0.787,0.38 1.224,0.497l0.26,1.551l2.566,0l0.263,-1.578c0.408,-0.117 0.817,-0.293 1.196,-0.497l1.315,0.935l1.81,-1.812l-0.935,-1.315c0.203,-0.38 0.38,-0.76 0.495,-1.2l1.544,-0.23l0,-0.003zm-7,1.407c-1.488,0 -2.683,-1.2 -2.683,-2.69s1.225,-2.69 2.683,-2.69c1.458,0 2.683,1.198 2.683,2.69c0,1.49 -1.195,2.688 -2.683,2.688l0,0.002z" />
  </defs>
  <g
     id="g8"
     style="fill:#ffffff">
    <title
       id="title5">Layer 1</title>
    <use
       x="0"
       y="-0.93333"
       id="svg_1"
       fill="#666666"
       xlink:href="#a"
       style="fill:#ffffff" />
  </g>
</svg>

<?xml version="1.0" encoding="UTF-8" standalone="no"?>
<svg
   xmlns:dc="http://purl.org/dc/elements/1.1/"
   xmlns:cc="http://creativecommons.org/ns#"
   xmlns:rdf="http://www.w3.org/1999/02/22-rdf-syntax-ns#"
   xmlns:svg="http://www.w3.org/2000/svg"
   xmlns="http://www.w3.org/2000/svg"
   xmlns:xlink="http://www.w3.org/1999/xlink"
   xmlns:sodipodi="http://sodipodi.sourceforge.net/DTD/sodipodi-0.dtd"
   xmlns:inkscape="http://www.inkscape.org/namespaces/inkscape"
   width="20"
   height="20"
   version="1.1"
   id="svg10"
   sodipodi:docname="admin.svg"
   inkscape:version="0.92.4 (5da689c313, 2019-01-14)">
  <metadata
     id="metadata14">
    <rdf:RDF>
      <cc:Work
         rdf:about="">
        <dc:format>image/svg+xml</dc:format>
        <dc:type
           rdf:resource="http://purl.org/dc/dcmitype/StillImage" />
        <dc:title></dc:title>
      </cc:Work>
    </rdf:RDF>
  </metadata>
  <sodipodi:namedview
     pagecolor="#ffffff"
     bordercolor="#666666"
     borderopacity="1"
     objecttolerance="10"
     gridtolerance="10"
     guidetolerance="10"
     inkscape:pageopacity="0"
     inkscape:pageshadow="2"
     inkscape:window-width="1920"
     inkscape:window-height="1001"
     id="namedview12"
     showgrid="false"
     inkscape:zoom="16.857143"
     inkscape:cx="-12.813559"
     inkscape:cy="7.06667"
     inkscape:window-x="-9"
     inkscape:window-y="-9"
     inkscape:window-maximized="1"
     inkscape:current-layer="svg10"
     fit-margin-top="0"
     fit-margin-left="0"
     fit-margin-right="0"
     fit-margin-bottom="0" />
  <defs
     id="defs3">
    <path
       id="a"
       d="M 14,9.3 V 6.73 L 12.425,6.466 c -0.117,-0.44 -0.292,-0.848 -0.496,-1.2 l 0.93,-1.285 -1.81,-1.84 -1.31,0.908 C 9.359,2.844 8.949,2.669 8.543,2.552 L 8.284,1 H 5.716 L 5.453,2.578 C 5.016,2.695 4.637,2.871 4.257,3.075 L 2.975,2.17 1.137,3.98 2.071,5.267 c -0.2,0.38 -0.376,0.79 -0.493,1.228 L 0,6.73 V 9.3 l 1.575,0.264 c 0.117,0.438 0.292,0.818 0.496,1.198 l -0.93,1.315 1.809,1.813 1.312,-0.938 c 0.38,0.205 0.787,0.38 1.224,0.497 L 5.746,15 h 2.566 l 0.263,-1.578 c 0.408,-0.117 0.817,-0.293 1.196,-0.497 l 1.315,0.935 1.81,-1.812 -0.935,-1.315 c 0.203,-0.38 0.38,-0.76 0.495,-1.2 L 14,9.303 Z m -7,1.407 c -1.488,0 -2.683,-1.2 -2.683,-2.69 0,-1.49 1.225,-2.69 2.683,-2.69 1.458,0 2.683,1.198 2.683,2.69 0,1.49 -1.195,2.688 -2.683,2.688 z"
       inkscape:connector-curvature="0" />
  </defs>
  <g
     id="g8"
     style="fill:#ffffff"
     transform="matrix(1.4285714,0,0,1.4285714,0,-0.09524286)">
    <title
       id="title5">Layer 1</title>
    <use
       x="0"
       y="-0.93333"
       id="svg_1"
       xlink:href="#a"
       style="fill:#ffffff"
       width="100%"
       height="100%" />
  </g>
</svg>
